X: 36515
T: Sergeant Early's Dream
R: reel
M: 4/4
K: Ddorian
cB|ADDE FAcA|GECD EFGE|DA,DE F2FG|Adde fedc|
ADDE FAcA|GECD E2FE|DA,DE FAcA|GFEF D2:|
|:FG|Addc d2de|f2ed cAGF|ECEG c2cd|ecdc AcGc|
Addc d3e|f2ed cAGc|AE (3EEE cE (3EEE|CDEC D2:|

